X:1
T:Hail the Lord of Glory
T:Hail the Lord of Glory
T:Adam Geibel
T:Alice Jean Cleator, 1901
T:Public Domain Courtesy of the Cyber Hymnal™
T:Public Domain Courtesy of the Cyber Hymnal™
C:Adam Geibel
Z:Public Domain
Z:Courtesy of the Cyber Hymnal™
%%score ( 1 2 ) ( 3 4 )
L:1/8
Q:1/4=95
M:4/4
K:C
V:1 treble 
V:2 treble 
V:3 bass 
V:4 bass 
V:1
 [Ec]>B [Ec]>d [Ec]>B [Ec]>A | [FB]2 [FB]2 [FB]4 | [FB]>^A [FB]>d [F=A]>^G [FA]>B | %3
w: 1.~Hail the Lord of glo- ry! Hail the|King of kings!|All the ra- diant hosts of Heav’n re-|
w: 2.~Sin and gloom and sor- row Long have|held their sway,|Je- sus now has come un- to His|
w: 3.~Hail the Lord of Hea- ven! Hail the|King of kings!|Ne- ver shall His glor- ious king- dom|
 G8 z [CE] z [B,F] z [B,F] z | [Ec]>B [Ec]>d [Ec]>B [Ec]>A | [DGB]2 [DGB]2 [DGB]4 | %6
w: joice. * * *|An- gel choirs in rap- ture Of His|glo- ry sing.|
w: own. * * *|See the gold- en dawn- ing, Dark- ness|flees a- way.|
w: cease. * * *|An- gel choirs in rap- ture Of His|glo- ry sing.|
 [^Fd]>^c d>e [Fd]>A B>=c | (d4 G4) ||"^Refrain" [Ee]2 [Ed]2 [Ec]>[EB] [Ed]>[Ec] | D4 A4 [CD]2 | %10
w: Praise Him, sons of men, With heart and|voice. *|||
w: Might- y hosts of sin shall be o’er-|thrown. *|O- pened are the gates of|Hea- ven (Hea-|
w: Hail the splen- dor of the day of|peace! *|||
 [Ff]2 [Fe]2 [Fd]>[F^c] [Fe]>[Fd] | [EA]2 G6 | [Ee]2 [Ed]2 [Ec]>[EB] [Ed]>[Ec] | f4 c4 | %14
w: ||||
w: ven) Dark- ness, dark- ness flees|a- way|(a- way), To the world a|king is|
w: ||||
 [Gc]2 z2 [Fe]>[Fd] B>[FG] | c8 |] %16
w: ||
w: giv- en (giv- en); Hail,|hail|
w: ||
V:2
 x8 | x8 | x8 | [CE] x14 | x8 | x8 | x8 | F8 || x8 | C2 C2 [CD]2 x4 | x8 | x2 E2 (F2 D2) | x8 | %13
 F2 F2 ^F2 F2 | x8 | (E>EF>F E4) |] %16
V:3
 [C,G,] z [G,,G,] z [C,G,] z [G,,G,] z | [D,G,] z [G,,G,] z [D,G,] z [G,,G,] z | %2
 [D,G,] z [G,,G,] z [B,,G,] z [G,,G,] z | [C,G,] z [G,,G,] z [D,G,] z [G,,G,] z x7 | %4
 [C,G,] z [G,,G,] z [C,G,] z [G,,G,] z | .B,,2 .[G,B,]2 (.[G,B,]2 .[G,B,]2) | %6
 .F,,2 .[D,^F,C]2 .D,,2 .[D,F,]2 | .[G,B,]2 .[G,,G,]2 .[G,,G,]2 .[G,,G,]2 || %8
 [C,G,]2 [C,G,]2 [C,G,]>[C,G,] [C,G,]>[C,G,] | [F,A,]2 [F,A,]2 [F,A,]2 [F,A,]2 x2 | %10
 [G,B,]2 [G,B,]2 [G,B,]>[G,B,] [G,B,]>[G,B,] | [C,C]2 [^C,_B,]2 =B,4 | %12
 [C,G,]2 [C,G,]2 [_B,C]>[B,C] [B,C]>[B,C] | [A,C]2 [A,C]2 [_A,C]2 [A,D]2 | %14
 [G,E]2 z2 [G,B,]>[G,B,] [G,D]>[G,B,] | ([C,C]>[C,G,][F,A,]>[F,A,] [C,G,]4) |] %16
V:4
 x8 | x8 | x8 | x15 | x8 | x8 | x8 | x8 || x8 | x10 | x8 | x4 (D,2 G,,2) | x8 | x8 | x8 | x8 |] %16

